X: 12
T: No_20_Closing_Song_of_War_Dance.krn
N: Derived from No_20_Closing_Song_of_War_Dance.krn
%%abc-version 2.0
%%abcx-abcm2ps-target-version 5.9.1 (29 Sep 2008)
%%abc-creator hum2abc beta
%%abcx-conversion-date 2019/03/15 08:27:55
%%humdrum-veritas 2488296948
%%humdrum-veritas-data 2969259921
%%linebreak <none>
%%barnumbers 0
L: 1/8
M: 2/4
%%staves {1 2}
V: 1 clef=bass
V: 2 clef=bass
K: G
[V:1] [K:clef=bass][M:2/4](3EEE E/E3/ | 
[V:2] [K:clef=bass][M:2/4]G,,G,, G,,G,, | 
[V:1] E/E3/ B,/B,/ z/ F/ | 
[V:2] G,,/G,,3/ G,,/G,,3/ | 
[V:1] E/E3/ E/E3/ | 
[V:2] z4 | 
[V:1] E/E3/ B,/B,/ z/ F/ | 
[V:2] z4 | 
[V:1] E/B,3/ B,B, | 
[V:2] z4 | 
[V:1] B,A, A, z/ B,/ | 
[V:2] z4 | 
[V:1] [M:3/4]A,/A,3/ A,A, A, z/ B,/ | 
[V:2] [M:3/4]z6 | 
[V:1] [M:2/4]B,/A,3/ A,A, | 
[V:2] [M:2/4]z4 | 
[V:1] A,G, E, z/ A,/ | 
[V:2] z4 | 
[V:1] [M:3/4]G,/G,3/ G,G, G, z/ B,/ | 
[V:2] [M:3/4]z6 | 
[V:1] [M:2/4]A,/A,3/ A,A, | 
[V:2] [M:2/4]z4 | 
[V:1] A,G, E,3/E,/ | 
[V:2] z4 | 
[V:1] E,E, E,E, | 
[V:2] z4 | 
[V:1] E,E, z3/ E/ | 
[V:2] z4 | 
[V:1] E/B,3/ B,B, | 
[V:2] z4 | 
[V:1] B,A, A, z/ B,/ | 
[V:2] z4 | 
[V:1] [M:3/4]A,/A,3/ A,A, A, z/ B,/ | 
[V:2] [M:3/4]z6 | 
[V:1] [M:2/4]B,/A,3/ A,A, | 
[V:2] [M:2/4]z4 | 
[V:1] A,G, E,/E,/ z/ A,/ | 
[V:2] z4 | 
[V:1] [M:3/4]G,/G,3/ G,G, G, z/ B,/ | 
[V:2] [M:3/4]z6 | 
[V:1] [M:2/4]A,/A,3/ A,A, | 
[V:2] [M:2/4]z4 | 
[V:1] A,G, E,3/F,/ | 
[V:2] z4 | 
[V:1] E,4 | 
[V:2] z4 | 
[V:1] E,2z2 |]  
[V:2] z4 |]  



